X:1
T:Sons of the Brave March
T:Sons of the Brave March
T:T Bidgood
C:T Bidgood
%%score 1 2 3
L:1/8
M:2/2
K:F
V:1 treble nm="Flute" snm="Fl."
V:2 treble transpose=-2 nm="B♭ Clarinet" snm="B♭ Cl."
V:3 treble transpose=-2 nm="B♭ Clarinet" snm="B♭ Cl."
V:1
!ff! (!>!f6 ed) | (!>!^c6 de) | (fed^c defg) | !>!a2 !>!a2 z4 | (b4- baad') | c'2 (f'e' f'e'f'g') | %6
 a'2 z2 !>!e4 | f2 aa a2 a2 | a2 z2!mf! (c3 =B) |: (c4 a2) z2 | a2 z2 a2 z2 | (3a2 b2 =b2 c'4- | %12
 c'2 z2 (c3 =B) | c4 f2 z2 | f2 z2 f2 z2 | (3f2 g2 ^g2 a4- | a2 z2 (3a2 g2 f2 | e4 d'4 | d'4 d'4 | %19
 c'3 a c'4- | c'2 z2 (3a2 g2 f2 | (!>!e4 g2) z2 | (!>!d4 g2) z2 |1 !>!c2 c'c' c'2 c'2 ||1 %24
 c'2 z2 c3 =B :|2 !>!c2 cc c2 c2 || c2 z2 z4 |: c8- | c8- | c2 (=Bc defg | a2) z2 z4 | a8- | a8- | %33
 a2 (ba bc'd'e' | f'2) z2!p! (d'3 e') | g'2 z2 f'2 z2 | e'2 z2 d'2 z2 | c'3 f' a'4- | %38
 a'2 z2"_cresc." (3a2 b2 =b2 | c'2 z2 (3f2 g2 a2 | b4 e4 |1!ff! f2!>(! cc c2 c2!>)! ||1 %42
 c2 c2 c2 c2 :|2!ff! f2 cc f2 cc || f2 cc !>!f2 z2!fine! |][K:Bb] F2 FF F2 F2 | z2 z2 z2 z2 |: %47
 z2!mp! ^C2 z2 D2 | z2 D2 z2 D2 | z2 ^C2 z2 F2 | z2"_cresc." F2 z2 F2 | z2 F2 z2 F2 | z2 F2 z2 F2 | %53
 z2 EE E2 E2 | E2 E2!f! E2 E2 | F2 =B2 F2 c2 | F2 A2 F2 A2 | F2 A2 F2 A2 | F2 A2 F2 A2 | %59
 C2 E2 F2 E2 | F2 E2 F2 E2 | D2 DD D2 D2 | D2 D2!mf! (d4 |!<(! ^c4 d4!<)! | f2) z2 (f4 | =e4 f4 | %66
 b2) z2"_cresc." (b4 | a4 b4 | c'4 d'4 | d'2) z2 a4- | a2 z2 a3 a | a6 g2 | ^f2 g2 =b2 a2 | ^f8- | %74
 f2 z2 ^f3 f | ^f6 =e2 | ^d2 =e2 g2 ^f2 |1 d8- ||1 d2 z2 d4 :|2 d8- || d2!f! !>!d2 !>!e2 !>!=e2 |: %81
 f2 z3/2 (b/ g2) z3/2 (b/ | !>!a2) !>!a2 !>!g2 z2 | f2 z3/2 (b/ g2) z3/2 (b/ | %84
 !>!a2) !>!a2 !>!g2 z2 | f2 (ed e2) (ed | e2) (e'd' c'bag | f2) (d'^c' d'2) (d'c' | %88
 d'2)!<(! (e'd' c'bag!<)! |!ff! f2) z3/2 (b/ g2) z3/2 (b/ | !>!a2) !>!a2 !>!g2 z2 | %91
 f2 z3/2 (b/ g2) z3/2 (b/ | !>!a2) !>!a2 !>!g2 z2 | f2 (ed e2) (ed | e2) (c'b agfe) | %95
 (d2 f) z (c2 f) z |1 b2 z2 z4 :|2 b2 bb b2 z2!D.C.! |] %98
V:2
[K:G]!ff! !>!B6 AB | !>!B6 BB | B4 c4 | !>!^d2 !>!d2 z4 | !>!c4 !>!c4 | !>!c2 !>!B2 !>!c2 !>!=c2 | %6
 d2 z2 !>!c4 | B2 GG G2 G2 | z2!mf! G2 z2 G2 |: G2 B2 d2 B2 | G2 B2 d2 B2 | G2 B2 d2 B2 | %12
 G2 B2 d2 B2 | G2 B2 d2 B2 | G2 B2 d2 B2 | G2 d2 d2 d2 | G2 B2 d2 B2 | A2 B2 d2 B2 | F2 c2 G2 c2 | %19
 B2 G2 G2 G2 | G2 d2 d2 d2 | B2 d2 G2 d2 | A2 ^c2 A2 c2 |1 !>!F2 FF F2 F2 ||1 F2 z z z2 z2 :|2 %25
 !>!A2 AA A2 A2 || D2 z2 z4 |: z2!f! c2 z2 c2 | z2 c2 z2 c2 | z2 B2 z2 B2 | z2 B2 z2 B2 | %31
 z2 ^d2 z2 d2 | z2 ^d2 z2 d2 | z2 GG G2 G2 | G2 z2!p! (e3 f) | a2 A2 g2 A2 | f2 ^A2 e2 A2 | %37
 d2 B2 b2 B2 | B,2 B2"_cresc." G,2 B2 | D2 B2 G2 B2 | D2 F2 D2 A2 |1!ff! G2!>(! DD D2 D2!>)! ||1 %42
 D2 D2 D2 D2 :|2!ff! B2 BB B2 BB || B2 BB !>!B2 z2 |][K:C] E2 EE E2 E2 | C2 z2 G,2 z2 |: %47
 C2 C2 G,2 C2 | C2 C2 G,2 E2 | C2 A,2 G,2 E2 | C2 E2"_cresc." G,2 E2 | E2 E2 G,2 E2 | %52
 C2 E2 G,2 E2 | z2 DD D2 D2 | D2 D2!f! D2 D2 | ^C2 D2 G,2 D2 | B,2 D2 G,2 D2 | ^C4 D4 | F2 z2 F4 | %59
 F4 F4 | F4 F4 | E2 CC C2 C2 | C2 C2!mf! C2 C2 |!<(! C2 G2 G,2 G2!<)! | E2 G2 G,2 G2 | %65
 D2 G2 G,2 G2 | E2 z2"_cresc." E4 | E4 E4 | G4 G4 | ^G2 GG G2 G2 | ^G2 G2 G2 G2 | B6 B2 | %72
 ^D2 B2 D2 B2 | ^G2 B2 B,2 B2 | E2 ^G2 E3 E | ^D2 ^d2 B,2 d2 | ^D2 ^d2 B,2 d2 |1 z2 ^G2 z2 G2 ||1 %78
 ^G2 z2 E4 :|2 ^G8- || G2!f! !>!E2 !>!F2 !>!^F2 |: G6 F2 | E2 D2 ^C3 D | E8- | E2 z2 E3 F | G8 | %86
 (3G2 G2 A2 (3B2 c2 d2 | e6 c2 | !>!G2!<(! !>!E2 !>!F2 !>!^F2!<)! |!ff! G6 F2 | E2 D2 ^C3 D | E8- | %92
 E2 z2 E3 F | G8- | G2 G2 A2 B2 | c2 G2 B,2 G2 |1 c2 z2 z2 z2 :|2 c2 cc c2 z2 |] %98
V:3
[K:G]!ff! !>!E6 (FG) | !>!A6 GF | E4 C4 | !>!B,2 !>!B,2 z4 | !>!A4 !>!G4 | %5
 !>!F2 !>!=F2 !>!E2 !>!_E2 | D2 z2 !>!D4 | G,2 DD D2 D2 | D4!mf! B,4 |: G8 | D6 B,2 | D8- | D8 | %13
 B8 | G6 D2 | B8- | B2 z2 (3d2 c2 B2 | A8 | A2 G2 A3 ^A | B8 | B2 G2 D2 B2 | A8- | A2 G2 E2 E2 |1 %23
 !>!D2 DD D2 D2 ||1 D2 z2 z4 :|2 !>!D2 DD D2 D2 || D2 z2!ff! !>!D4 |: !>!E4 !>!F4 | !>!B4 !>!A4 | %29
 (!>!G6 FE) | D2 z2 (B,3 ^A,) | !>!B,4 !>!^D4 | !>!G4 !>!F4 | !>!E8- | E2 z2!p! E2 E2 | %35
 C2 E2 A2 E2 | ^C2 E2 G2 _B2 | =B2 d2 G2 B2 | D2 G2"_cresc." B,2 D2 | D2 G2 D2 G2 | D2 A2 D2 D2 |1 %41
!ff!!>(! G,2 z2 z4!>)! ||1 z4 D4 :|2!ff! G2 GG G2 GG || G2 GG !>!G2 z2 |] %45
[K:C]{/G,A,B,} C2 CC C2 C2 | C2 z2!mp!!mp! (E4 |: ^D4 E4 | G2) z2 (G4 | ^F4 G4 | %50
 c2) z2"_cresc." (c4 | B4 c4 | d4 e4 | f2) z2 B4- | B2 z2!f! (D4 | ^C4 D4 | F2) z2 (F4 | E4 F4 | %58
 B2) z2 (B4 | ^A4 B4 | e4 d4 | d2) z2 E4- | E2 E2!mf! E2 E2 | z2!<(! ^D2 z2 E2!<)! | C2 E2 G2 c2 | %65
 ^d4 e4- | e2 E2"_cresc." G2 E2 | G2 E2 G2 E2 | C2 c2 C2 c2 | B,4 E4 | ^G4 B4 | ^D2 ^G2 B2 G2 | %72
 B,2 A2 B,2 A2 | E2 ^G2 G2 G2 | ^G,2 B,2 E2 ^G2 | B8- | B8 |1 E2 B2 B,2 B2 ||1 E2 z2 z4 :|2 %79
 E2 EE E2 E2 || G,2!f! !>!E,2 !>!F,2 !>!^F,2 |: G,2 D2 G,2 D2 | D2 G,2 G,2 B,2 | C2 C2 G,2 C2 | %84
 C2 C2 G,2 C2 | B,2 D2 A,2 D2 | C2 B,2 G,2 B,2 | C2 C2 G,2 C2 | C2!<(! C2 G,2 C2!<)! | %89
!ff! D2 D2 G,2 D2 | D2 G,2 G,2 B,2 | C2 C2 G,2 C2 | C2 C2 G,2 C2 | B,2 D2 G,2 D2 | D2 D2 G,2 D2 | %95
 C2 E2 G,2 E2 |1 C2 z2 z4 :|2 C2 CC C2 z2 |] %98

